X: 8
T: No_105_Song_Concerning_the_Lost_Children.krn
N: Derived from No_105_Song_Concerning_the_Lost_Children.krn
%%abc-version 2.0
%%abcx-abcm2ps-target-version 5.9.1 (29 Sep 2008)
%%abc-creator hum2abc beta
%%abcx-conversion-date 2019/03/15 08:37:56
%%humdrum-veritas 2624668014
%%humdrum-veritas-data 2297670202
%%linebreak <none>
%%barnumbers 0
L: 1/4
M: 2/4
K: Eb clef=bass
[K:clef=bass][M:2/4]B,B,/B,/ | 
B,B, | 
A,3/E,/ ||  
[M:3/4]F,E,E, ||  
[M:2/4]A,3/E,/ ||  
[M:3/4]F,E,E, | 
E,2B,,/ z/ | 
E,3/A,,/A,, | 
B,,2B,, ||  
[M:2/4]A,,F,,/E,,/ ||  
[M:3/4]E,,3 ||  
[M:2/4]F,F, | 
F,F,/E,/ | 
F,3//E,//E, | 
B,,B,,/ z/ ||  
[M:3/4]E,3/_D,/F, ||  
[M:2/4]E,_D, ||  
[M:3/4]B,,//A,,3//-A,,A,,/A,,/ | 
B,,3 | 
B,,z2 |]  



